X:1
T:Jenny's Bawbee  "CYMRU"
M:C|
L:1/8
Q:80
C:Trad.
S:March
K:HP
|: {gf}g | \
a2{GdG}a3/2g/2 | \
{fg}fd{gdc}d{g}e3/4f/4 |
{gf}g{BG}B{gef}e3/2d/2 | \
{gcd}c{e}A{GAG}A{gf}g:|2  | \
a2{GdG}a3/2g/2 |
{fg}fd{g}f/2a3/2 | \
{gdc}B2{gcd}c{e}A | \
{Gdc}d2{gdc}d ::
e | \
{gfg}fd{gf}ge | \
{gfg}fd{gdc}d{g}e3/4f/4 | \
{gf}g{BG}B{gef}e3/2d/2 |
{gcd}c{e}A{GAG}Ae|1  | \
{gfg}fd{gf}ge | \
{gfg}fd{g}f/2a3/2 |
{gdc}B2{gcd}c{e}A | \
{Gdc}d2{gdc}d :|
